resources/user.svg

<svg width="1792" height="1792" viewBox="0 0 1792 1792" xmlns="http://www.w3.org/2000/svg"><path d="M1600 1405q0 120-73 189.5t-194 69.5h-874q-121 0-194-69.5t-73-189.5q0-53 3.5-103.5t14-109 26.5-108.5 43-97.5 62-81 85.5-53.5 111.5-20q9 0 42 21.5t74.5 48 108 48 133.5 21.5 133.5-21.5 108-48 74.5-48 42-21.5q61 0 111.5 20t85.5 53.5 62 81 43 97.5 26.5 108.5 14 109 3.5 103.5zm-320-893q0 159-112.5 271.5t-271.5 112.5-271.5-112.5-112.5-271.5 112.5-271.5 271.5-112.5 271.5 112.5 112.5 271.5z"/></svg>

<svg width="1792" height="1792" viewBox="0 0 1792 1792" xmlns="http://www.w3.org/2000/svg" fill="#6480A7"><path d="M1600 1405q0 120-73 189.5t-194 69.5H459q-121 0-194-69.5T192 1405q0-53 3.5-103.5t14-109T236 1084t43-97.5 62-81 85.5-53.5T538 832q9 0 42 21.5t74.5 48 108 48T896 971t133.5-21.5 108-48 74.5-48 42-21.5q61 0 111.5 20t85.5 53.5 62 81 43 97.5 26.5 108.5 14 109 3.5 103.5zm-320-893q0 159-112.5 271.5T896 896 624.5 783.5 512 512t112.5-271.5T896 128t271.5 112.5T1280 512z"/></svg>
